X:10402
T:Off to California
R:Hornpipe
M:4/4
L:1/8
B:Tuneworks Tunebook (https://www.tuneworks.co.uk/) p4
G:tuneworks
Z:Jon Warbrick, jon.warbrick@googlemail.com
K:D
|: (3DEF | "G"GFGB AGED | GBdg "C"e2 (3def | "G"gfgd edBG | "C"ABAG "D"E2 (3DEF | 
"G"GFGB AGED | GBdg "C"e2 (3def | "G"gfgd edBG | "C"(3ABA "D"GF "G"G2 :|
|: (3def | "Em"gfeg "D"fedf | "C"edef edBd | "G"gfgd edBG | "C"ABAG "D"E2 (3DEF | 
"G"GEGB AGED | GBdg "C"e2 (3def | "G"gfgd edBG | "C"(3ABA "D"GF "G"G2 :|


